X:1
T:Windemere (Kroeger), HM
T:Windemere (Kroeger), HM
T:Ernest Richard Kroeger, 1901
T:Public Domain Courtesy of the Cyber Hymnal™
C:Ernest Richard Kroeger, 1901
Z:Public Domain
Z:Courtesy of the Cyber Hymnal™
%%score ( 1 2 ) ( 3 4 )
L:1/8
Q:1/4=112
M:4/4
K:C
V:1 treble 
V:2 treble 
V:3 bass 
V:4 bass 
V:1
 [CE]2 | [EG]2 [FA]2 [EG]2 (cA) | [EG]6 C2 | [CE]2 [CE]2 [DF]2 [B,F]2 | [CE]6 [CE]2 | %5
 [EG]2 [^DA]2 [EG]2 (cA) | [EG]6 [_EA]2 | [DB]2 [GB]2 [^Fc]2 [DF]2 | [DG]4- [DG] z G2 | %9
 [Fd]3 [Fd] [FA]2 [FB]2 | [Ec]2 [FA]2 !fermata![EG]2 [CE]2 | [CG]3 [EG] [EG]2 [DF]2 | %12
 [CD]4 [B,G]4 | !fermata![CE]6 |] %14
V:2
 x2 | x6 F2 | x6 C2 | x8 | x8 | x6 F2 | x8 | x8 | x6 G2 | x8 | x8 | x8 | x8 | x6 |] %14
V:3
 [C,G,]2 | [C,C]2 [C,C]2 [C,C]2 (A,B,) | [C,C]6 [C,E,]2 | G,2 G,2 [G,,G,]2 [G,,G,]2 | %4
 [C,G,]6 [C,G,]2 | [C,C]2 [C,^F,]2 [C,G,]2 (A,B,) | [C,C]6 [C,C]2 | [D,G,]2 (B,D) [D,D]2 [D,C]2 | %8
 [G,B,]4- [G,B,] z [G,B,]2 | [G,B,]3 [G,B,] [G,C]2 [G,D]2 | [A,C]2 [F,C]2 !fermata![C,C]2 [C,G,]2 | %11
 [C,E,]3 [C,G,] [^C,_B,]2 [D,A,]2 | G,4 [G,,G,]4 | !fermata![C,G,]6 |] %14
V:4
 x2 | x6 F,,2 | x8 | G,2 G,2 x4 | x8 | x6 =F,,2 | x8 | x2 D,2 x4 | x8 | x8 | x8 | x8 | G,4 x4 | %13
 x6 |] %14

